X: 17302
T: Hey Ho My Bonnie Lass
R: reel
M: 4/4
K: Amajor
|A2 ec efae|c2 AB c2 Bc|A2 ec efac|B2 Bc f2 ef|
A2 ec efae|c2 AB c2 Bc|dfBd ceAc|Bcde fefg||
a2 af efae|c2 AB c2 Bc|a2 af efac|B2 Bc fefg|
agaf efae|c2 AB c2 BA|dfBd ceAc|Bcde f2 e2||

